X: 11090
T: SHEILA'S HORNPIPE
C: Bob McQuillen 23 Jan'02
B: Bob's Note Book 11 #90
R: hornpipe
Z: 2019 John Chambers <jc:trillian.mit.edu>
M: C
L: 1/8
K: D
AG \
| F2DF A2AG | FDFA dfed | c2Ac e2fa | gfed cABA |
| F2DF A2AG | FDFA d2AG | FAdf gfed | c2A2 A2 :|
|: de \
| fefg fedf | edcd e2fe | dBdf edBd | cAec A2AG |
| FDFA dfaf | gdBd geag | fAdf gecd | e2d2 d2 :|
%%begintext align
%% Sheila Moran is a
%% real nice woman who, living up in Lebanon as
%% she does, has more than a passing acquaintance with
%% David Millstone (like, you know, they're married!)
%% Well, of course, this puts her right in line for a
%% tune of her own (I know - it's about time!) and so
%% anyway, here it is, Sheila, with love from MAC,
%% and I sure hope you like dancing to it!
%%endtext

%%sep 1 1 500

%%sep 1 1 500

